icons/star_small_fill.svg

<svg width="48" height="48" viewBox="0 0 48 48" fill="none" xmlns="http://www.w3.org/2000/svg">
<path d="M23.06 30.4257L23.524 31.3115L23.06 30.4257L18.1555 32.9948C18.1509 32.9972 18.1477 32.9985 18.1459 32.9991C18.1445 32.9996 18.1436 32.9999 18.1432 33C18.1418 32.9997 18.1361 32.9984 18.1287 32.9931C18.1238 32.9895 18.1211 32.9864 18.1198 32.9846C18.1199 32.9829 18.1201 32.98 18.1208 32.9759L19.0575 27.5344C19.1705 26.8779 18.9518 26.2088 18.4745 25.7452L14.5067 21.8916C14.5033 21.8882 14.5012 21.8857 14.5 21.8842C14.5001 21.8823 14.5004 21.8788 14.5019 21.8741C14.504 21.8679 14.5065 21.8644 14.5076 21.863L14.5098 21.8623C14.5116 21.8617 14.515 21.8609 14.5202 21.8601L20.0036 21.0662C20.6611 20.971 21.2311 20.5593 21.5266 19.9628L20.6305 19.519L21.5266 19.9628L23.9788 15.012C23.981 15.0077 23.9827 15.005 23.9836 15.0037L23.9844 15.0026C23.9862 15.0018 23.9915 15 24 15C24.0085 15 24.0138 15.0018 24.0156 15.0026L24.0164 15.0037C24.0173 15.005 24.019 15.0077 24.0212 15.012L26.4734 19.9628L27.3695 19.519L26.4734 19.9628C26.7689 20.5593 27.3389 20.971 27.9964 21.0662L33.4798 21.8601C33.485 21.8609 33.4884 21.8617 33.4902 21.8623L33.4924 21.863C33.4935 21.8644 33.496 21.8679 33.4981 21.8741C33.4996 21.8788 33.4999 21.8823 33.5 21.8842C33.4999 21.8842 33.4999 21.8843 33.4998 21.8844C33.4987 21.8859 33.4966 21.8883 33.4933 21.8916L29.5255 25.7452C29.0482 26.2088 28.8295 26.8779 28.9425 27.5344L29.8792 32.9759C29.8795 32.9781 29.8798 32.98 29.8799 32.9815C29.8801 32.9828 29.8801 32.9838 29.8802 32.9846C29.8789 32.9864 29.8762 32.9895 29.8713 32.9931C29.8639 32.9984 29.8582 32.9997 29.8568 33C29.8564 32.9999 29.8555 32.9996 29.8541 32.9991C29.8523 32.9985 29.8491 32.9972 29.8445 32.9948L24.94 30.4257L24.476 31.3115L24.94 30.4257C24.3514 30.1174 23.6486 30.1174 23.06 30.4257Z" fill="black" stroke="black" stroke-width="2"/>
</svg>

<svg
  xmlns="http://www.w3.org/2000/svg"
  width="24"
  height="24"
  viewBox="0 0 24 24"
  fill="none"
  stroke="currentColor"
  stroke-width="2"
  stroke-linecap="round"
  stroke-linejoin="round"
>
  <path d="m23.06 30.426.464.886-.464-.886-4.904 2.569-.013.005-.014-.007-.01-.008.002-.01.937-5.44a2.02 2.02 0 0 0-.584-1.79l-3.967-3.853-.007-.008a.04.04 0 0 1 .008-.021h.002l.01-.003 5.484-.794a2.02 2.02 0 0 0 1.523-1.103l-.896-.444.896.444 2.452-4.951.005-.008v-.001L24 15l.016.003.005.009 2.452 4.95.896-.443-.896.444a2.02 2.02 0 0 0 1.523 1.103l5.484.794.01.002.002.001.006.011.002.01-.007.008-3.968 3.853a2.02 2.02 0 0 0-.582 1.79l.936 5.44v.006l.001.004-.009.008-.014.007h-.003l-.01-.005-4.904-2.57-.464.886.464-.885a2.03 2.03 0 0 0-1.88 0Z" />
</svg>
